X: 12753
T: Father O'Flynn
R: jig
M: 6/8
K: Dmajor
|:A|dAF DFA|Bed cBA|dcd efg|fdg ecA|
dAF DFA|Bed cBA|dcd efg|fdd d2:|
|:g|fdf fga|ecc c3|dcd Bed|cAA A3|
BGB Bcd|AFD DFA|dcd efg|fdd d2:|

